plasma/desktoptheme/Monochrome/icons/device.svg

<svg id="svg" width="32" height="32" version="1.1" viewBox="0 0 32 32" xmlns="http://www.w3.org/2000/svg">
 <g id="22-22-device-notifier" transform="translate(32,10)">
  <rect width="22" height="22" style="opacity:.00100002"/>
  <path d="m6 3c-1.108 0-2 0.892-2 2v12c0 1.108 0.892 2 2 2h10c1.108 0 2-0.892 2-2v-12c0-1.108-0.892-2-2-2zm5 3 4 5h-8zm-4 6h8v2h-8z" style="fill:#aaaaac"/>
 </g>
 <g id="device-notifier">
  <rect width="32" height="32" style="opacity:.00100002"/>
  <g>
   <rect transform="matrix(0,-1,-1,0,0,0)" x="-31" y="-27" width="28" height="22" rx="2" ry="2" style="opacity:.2"/>
   <rect transform="matrix(0,-1,-1,0,0,0)" x="-30" y="-27" width="28" height="22" rx="2" ry="2" style="fill:#8e8e8e"/>
   <path d="m11 16h10v2h-10zm5-8 5 6h-10z" style="opacity:.5"/>
   <path d="m7 2c-1.108 0-2 0.892-2 2v1c0-1.108 0.892-2 2-2h18c1.108 0 2 0.892 2 2v-1c0-1.108-0.892-2-2-2z" style="fill:#ffffff;opacity:.2"/>
  </g>
 </g>
</svg>

<svg xmlns="http://www.w3.org/2000/svg" width="32" height="32" version="1.1">
 <g id="22-22-device-notifier" transform="translate(32,10)">
  <rect style="opacity:0.001" width="22" height="22" x="0" y="0"/>
  <path style="fill:#aaaaac" d="M 6,3 C 4.892,3 4,3.892 4,5 v 12 c 0,1.108 0.892,2 2,2 h 10 c 1.108,0 2,-0.892 2,-2 V 5 C 18,3.892 17.108,3 16,3 Z m 5,3 4,5 H 7 Z m -4,6 h 8 v 2 H 7 Z"/>
 </g>
 <g id="device-notifier">
  <rect width="32" height="32" x="0" y="0" style="opacity:0.001"/>
  <g>
   <rect style="opacity:0.2" width="28" height="22" x="-31" y="-27" rx="2" ry="2" transform="matrix(0,-1,-1,0,0,0)"/>
   <rect style="fill:#8e8e8e" width="28" height="22" x="-30" y="-27" rx="2" ry="2" transform="matrix(0,-1,-1,0,0,0)"/>
   <path style="opacity:0.5" d="m 11,16 h 10 v 2 H 11 Z m 5,-8 5,6 H 11 Z"/>
   <path style="opacity:0.2;fill:#ffffff" d="M 7,2 C 5.892,2 5,2.892 5,4 V 5 C 5,3.892 5.892,3 7,3 h 18 c 1.108,0 2,0.892 2,2 V 4 C 27,2.892 26.108,2 25,2 Z"/>
  </g>
 </g>
</svg>
